X:1
T:Becontree, LMD
T:Becontree, LMD
T:William James Kirkpatrick, 1889
T:Public Domain Courtesy of the Cyber Hymnal™
C:William James Kirkpatrick, 1889
Z:Public Domain
Z:Courtesy of the Cyber Hymnal™
%%score ( 1 2 ) ( 3 4 )
L:1/8
Q:1/4=135
M:6/4
K:Ab
V:1 treble 
V:2 treble 
V:3 bass 
V:4 bass 
V:1
 [CE]2 | [CE]4 [CA]2 [Ec]4 [CA]2 | (B2 A2) [DF]2 [CE]4 [CE]2 | [B,E]4 [EB]2 [EB]4 [Ed]2 | %4
 (d2 c2) [EB]2 [Ec]4 [CE]2 | [CE]4 [CA]2 [Ec]4 [CA]2 | (B2 A2) [DF]2 [CE]4 [EA]2 | %7
 (G2 F2) [EG]2 (A2 G2) [EA]2 | [Ec]4 [DB]2 [CA]4 [CA]2 | [EB]4 [EB]2 [Ed]4 [DG]2 | %10
 (B2 A2) [DF]2 [CE]4 E2 | [Ed]4 [Ed]2 (c3 B) [=DA]2 | [EB]4 [Ec]2 [EB]4!mf! [Ge]2 | %13
 [Ae]4!p! [Ec]2 [Ec]4 [EA]2 | (B2 A2) F2 !fermata![Fd]4 [DF]2 | [CE]4 [CA]2 [Ec]4 [DB]2 | %16
 [CA]4 [DA]2 [CA]4 |] %17
V:2
 x2 | x12 | D4 x8 | x12 | E4 x8 | x12 | D4 x8 | E4 E4 x4 | x12 | x12 | C4 x4 E2 x2 | x6 E4 x2 | %12
 x12 | x12 | F4 x8 | x12 | x10 |] %17
V:3
 [A,,A,]2 | [A,,A,]4 [A,,A,]2 [A,,A,]4 [A,,A,]2 | [D,F,]4 [D,A,]2 [A,,A,]4 [A,,A,]2 | %3
 [E,G,]4 [E,G,]2 [E,G,]4 [E,B,]2 | (B,2 A,2) [E,G,]2 A,4 [A,,A,]2 | %5
 [A,,A,]4 [A,,A,]2 [A,,A,]4 [A,,E,]2 | [D,F,]4 [D,A,]2 [A,,A,]4 [A,,C]2 | %7
 (B,2 A,2) [E,B,]2 (C2 B,2) [E,C]2 | [E,A,]4 [E,G,]2 [A,,E,A,]4 [A,,A,]2 | %9
 [E,G,]4 [E,G,]2 [E,B,]4 E,2 | [A,,E,]4 [A,,A,]2 [A,,A,]4 [A,C]2 | %11
 [G,B,]4 [G,B,]2 A,3 [G,B,] [F,B,]2 | [E,G,]4 [E,A,]2 [E,G,]4 [E,B,]2 | %13
 [A,C]4 [A,,A,]2 [A,,A,]4 [C,A,]2 | [D,A,]4 [D,A,]2 !fermata![D,A,]4 [D,A,]2 | %15
 [E,A,]4 [E,A,]2 [E,A,]4 (G,E,) | [A,,E,]4 [A,,E,]2 [A,,E,]4 |] %17
V:4
 x2 | x12 | x12 | x12 | E,4 A,4 x4 | x12 | x12 | E,4 E,4 x4 | x12 | x10 E,2 | x12 | x6 A,3 x3 | %12
 x12 | x12 | x12 | x10 E,2 | x10 |] %17

